icons/art-building-west.svg

<?xml version="1.0" encoding="UTF-8"?><svg id="uuid-76e01f98-24fa-4a7f-9a36-1c32f7a7b275" xmlns="http://www.w3.org/2000/svg" viewBox="0 0 50 50"><path d="M5.11,28.36v-1.3h-1.06v5h3.48v-3.11h-1.92c-.28,0-.5-.22-.5-.5v-.09Z" fill="none"/><path d="M16.63,21.13h-3.74c-.28,0-.5-.22-.5-.5v-5.57h-1.45v12.81h5.68v-6.74Z" fill="none"/><rect x="13.4" y="15.05" width="3.47" height="5.07" fill="none"/><rect x="6.11" y="26.12" width="3.84" height="1.74" fill="none"/><rect x="6.11" y="15.05" width="3.84" height="10.06" fill="none"/><polygon points="20.14 22.24 17.86 21.97 17.86 27.76 20.14 27.33 20.14 22.24" fill="none"/><path d="M29.9,27.06h-3.04s-.02,0-.02,0v4.99h3.06v-5Z" fill="none"/><polygon points="26.15 18.77 17.86 15.31 17.86 20.96 26.15 21.93 26.15 18.77" fill="none"/><polygon points="23.27 22.6 21.14 22.35 21.14 27.14 23.27 26.74 23.27 22.6" fill="none"/><polygon points="21.78 28.04 20.18 28.34 20.18 32.06 21.78 32.06 21.78 28.04" fill="none"/><polygon points="25.84 27.28 22.78 27.85 22.78 32.06 25.84 32.06 25.84 27.28" fill="none"/><polygon points="26.15 22.94 24.27 22.72 24.27 26.55 26.15 26.2 26.15 22.94" fill="none"/><polygon points="43.94 12.05 33.39 12.05 33.39 17.62 34.84 17.62 34.86 17.63 34.86 17.63 43.94 18.06 43.94 12.05" fill="none"/><rect x="27.15" y="18.62" width="7.19" height="7.44" fill="none"/><path d="M47.97,19.25l-12.63-.6v15.8l6.39-.53v-6.92c0-.28,.22-.5,.5-.5h5.74v-7.25Z" fill="none"/><rect x="30.9" y="27.06" width="3.44" height="5" fill="none"/><polygon points="5.11 25.62 5.11 18.62 1.53 18.62 1.53 26.06 5.11 26.06 5.11 25.62" fill="none"/><polygon points="42.73 33.79 47.97 33.39 47.97 27.51 42.73 27.51 42.73 33.79" fill="none"/><rect x="1.53" y="33.06" width="10.12" height="1.43" fill="none"/><rect x="20.18" y="33.06" width="14.16" height="1.43" fill="none"/><rect x="1.53" y="27.06" width="1.52" height="5" fill="none"/><path d="M17.72,28.8c-.09,.09-.22,.15-.36,.15h-4.72v8.5h6.54v-8.92l-1.46,.28Z" fill="none"/><rect x="8.53" y="28.95" width="3.11" height="3.11" fill="none"/><path d="M48.97,25.89v-7.12c0-.27-.21-.49-.48-.5l-3.55-.17v-6.56c0-.28-.22-.5-.5-.5h-11.55c-.28,0-.5,.22-.5,.5v6.07h-6.39l-8.44-3.53c-.06-.03-.13-.04-.2-.04H5.61c-.28,0-.5,.22-.5,.5v3.07H1.03c-.28,0-.5,.22-.5,.5v16.87c0,.28,.22,.5,.5,.5H11.64v2.45c0,.28,.22,.5,.5,.5h7.54c.28,0,.5-.22,.5-.5v-2.45h14.66s.03,0,.04,0l7.39-.61c.08,0,.15-.04,.21-.07l6.03-.46c.26-.02,.46-.24,.46-.5v-7.96h0Zm-22.13,1.17s.02,0,.02,0h3.04v5h-3.06v-4.99Zm-8.98-11.76l8.28,3.46v3.16l-8.28-.97v-5.66Zm2.32,13.04l1.6-.3v4.02h-1.6v-3.72Zm.96-1.2v-4.79l2.13,.25v4.14l-2.13,.4Zm1.64,.71l3.06-.58v4.79h-3.06v-4.21Zm1.49-1.3v-3.84l1.87,.22v3.26l-1.87,.35Zm-6.41-4.59l2.28,.27v5.1l-2.28,.43v-5.79Zm-4.47-6.91h3.47v5.07h-3.47v-5.07Zm-2.45,10.56V15.05h1.45v5.57c0,.28,.22,.5,.5,.5h3.74v6.74h-5.68v-2.24ZM6.11,15.05h3.84v10.06h-3.84V15.05Zm0,11.06h3.84v1.74h-3.84v-1.74Zm-.5,2.84h1.92v3.11h-3.48v-5h1.06v1.39c0,.28,.22,.5,.5,.5ZM1.53,18.62h3.58v7.44H1.53v-7.44Zm0,8.44h1.52v5H1.53v-5Zm10.12,7.44H1.53v-1.43H11.64v1.43Zm-3.11-2.43v-3.11h3.11v3.11h-3.11Zm10.65,5.39h-6.54v-8.5h4.72c.14,0,.27-.06,.36-.15l1.46-.28v8.92Zm15.16-2.95h-14.16v-1.43h14.16v1.43Zm0-2.43h-3.44v-5h3.44v5Zm0-6h-7.19v-7.44h7.19v7.44Zm.52-8.44h-1.47v-5.58h10.55v6.01l-9.08-.43Zm7.37,8.88c-.28,0-.5,.22-.5,.5v6.92l-6.39,.53v-15.8l12.63,.6v7.25h-5.74Zm5.75,6.88l-5.25,.4v-6.29h5.25v5.88Z"/></svg>

<svg id="b7e34804-3f1c-4d72-87da-cad3e40f0110" data-name="ICONS" xmlns="http://www.w3.org/2000/svg" viewBox="0 0 50 50"><path d="M5.11,28.36v-1.3H4.05v5H7.53V29H5.61a.5.5,0,0,1-.5-.5Z" fill="none"/><path d="M16.63,21.13H12.9a.5.5,0,0,1-.5-.5V15.05H11V27.86h5.68Z" fill="none"/><rect x="13.4" y="15.05" width="3.47" height="5.07" fill="none"/><rect x="6.11" y="26.12" width="3.84" height="1.74" fill="none"/><rect x="6.11" y="15.05" width="3.84" height="10.06" fill="none"/><polygon points="20.14 22.23 17.86 21.97 17.86 27.76 20.14 27.33 20.14 22.23" fill="none"/><path d="M29.9,27.06H26.84v5H29.9Z" fill="none"/><polygon points="26.15 18.77 17.86 15.3 17.86 20.96 26.15 21.93 26.15 18.77" fill="none"/><polygon points="23.27 22.6 21.14 22.35 21.14 27.14 23.27 26.74 23.27 22.6" fill="none"/><polygon points="21.78 28.04 20.18 28.34 20.18 32.06 21.78 32.06 21.78 28.04" fill="none"/><polygon points="25.84 27.28 22.78 27.85 22.78 32.06 25.84 32.06 25.84 27.28" fill="none"/><polygon points="26.15 22.94 24.27 22.72 24.27 26.55 26.15 26.2 26.15 22.94" fill="none"/><polygon points="43.94 12.05 33.39 12.05 33.39 17.63 34.84 17.63 34.86 17.63 34.87 17.63 43.94 18.06 43.94 12.05" fill="none"/><rect x="27.15" y="18.62" width="7.19" height="7.44" fill="none"/><path d="M48,19.25l-12.63-.6v15.8l6.39-.52V27a.5.5,0,0,1,.5-.5H48Z" fill="none"/><rect x="30.9" y="27.06" width="3.44" height="5" fill="none"/><polygon points="5.11 25.62 5.11 18.63 1.52 18.63 1.52 26.06 5.11 26.06 5.11 25.62" fill="none"/><polygon points="42.73 33.79 47.98 33.39 47.98 27.51 42.73 27.51 42.73 33.79" fill="none"/><rect x="1.53" y="33.06" width="10.12" height="1.43" fill="none"/><rect x="20.18" y="33.06" width="14.16" height="1.43" fill="none"/><rect x="1.53" y="27.06" width="1.52" height="5" fill="none"/><path d="M17.72,28.8a.48.48,0,0,1-.36.15H12.64v8.5h6.54V28.53Z" fill="none"/><rect x="8.53" y="28.95" width="3.11" height="3.11" fill="none"/><path d="M49,25.89V18.78a.5.5,0,0,0-.47-.5l-3.56-.17V11.55a.5.5,0,0,0-.5-.5H32.89a.5.5,0,0,0-.5.5v6.07H26L17.56,14.1a.46.46,0,0,0-.2,0H5.61a.5.5,0,0,0-.5.5v3.07H1a.5.5,0,0,0-.5.5V35a.5.5,0,0,0,.5.5H11.64V38a.5.5,0,0,0,.5.5h7.54a.5.5,0,0,0,.5-.5V35.5h14.7l7.39-.6a.49.49,0,0,0,.21-.08l6-.46a.5.5,0,0,0,.46-.5v-8ZM26.84,27.07H29.9v5H26.84Zm-9-11.76,8.29,3.46v3.16l-8.29-1Zm2.32,13,1.6-.3v4h-1.6Zm1-1.2V22.35l2.13.25v4.14Zm1.64.71,3.06-.57v4.78H22.78Zm1.49-1.3V22.72l1.88.22V26.2ZM17.86,22l2.28.27v5.09l-2.28.43ZM13.4,15.05h3.46v5.08H13.4ZM11,25.62V15.05H12.4v5.58a.5.5,0,0,0,.5.5h3.73v6.73H11ZM6.11,15.05H10V25.12H6.11Zm0,11.07H10v1.74H6.11ZM5.61,29H7.53v3.11H4.05v-5H5.11v1.39A.5.5,0,0,0,5.61,29ZM1.53,18.62H5.11v7.44H1.53Zm0,8.44H3.05v5H1.53ZM11.64,34.5H1.53V33.06H11.64ZM8.53,32.06V29h3.11v3.11Zm10.65,5.39H12.64V29h4.72a.48.48,0,0,0,.36-.15l1.46-.27v8.92Zm15.16-3H20.18V33.06H34.34Zm0-2.44H30.9v-5h3.44Zm0-6H27.15V18.62h7.19Zm.52-8.43H33.39V12.05H43.94v6Zm7.37,8.88a.5.5,0,0,0-.5.5v6.92l-6.39.52V18.65l12.63.6v7.26ZM48,33.39l-5.24.4V27.51H48Z"/></svg>
